src/images/star.svg

<svg width="14" height="14" viewBox="0 0 14 14" fill="none" xmlns="http://www.w3.org/2000/svg">
<path d="M6.05208 1.09367C6.35969 0.189974 7.6378 0.189977 7.94541 1.09367L8.92893 3.98313C9.06687 4.3884 9.44749 4.66091 9.87559 4.66091H12.9558C13.9357 4.66091 14.3309 5.92416 13.5257 6.48263L11.115 8.15456C10.7481 8.40901 10.5943 8.87584 10.7382 9.29851L11.6777 12.0586C11.9885 12.9718 10.9538 13.7523 10.1611 13.2025L7.56864 11.4046C7.22589 11.1668 6.7716 11.1668 6.42885 11.4046L3.83638 13.2025C3.04371 13.7523 2.00899 12.9718 2.31982 12.0586L3.2593 9.29851C3.40317 8.87584 3.24942 8.40901 2.88253 8.15456L0.471796 6.48263C-0.333441 5.92416 0.0617454 4.66091 1.04169 4.66091H4.1219C4.55 4.66091 4.93062 4.3884 5.06856 3.98313L6.05208 1.09367Z" fill="#FFA858"/>
</svg>

<svg width="14" height="14" fill="none" xmlns="http://www.w3.org/2000/svg"><path d="M6.052 1.094c.308-.904 1.586-.904 1.893 0l.984 2.89a1 1 0 0 0 .947.677h3.08c.98 0 1.375 1.263.57 1.822l-2.411 1.672a1 1 0 0 0-.377 1.144l.94 2.76c.31.913-.724 1.693-1.517 1.144L7.57 11.405a1 1 0 0 0-1.14 0l-2.593 1.798c-.792.55-1.827-.231-1.516-1.144l.94-2.76a1 1 0 0 0-.377-1.144L.472 6.483c-.805-.559-.41-1.822.57-1.822h3.08a1 1 0 0 0 .947-.678l.983-2.89Z" fill="#FFA858"/></svg>
